X: 528
T: Wuge fangyang
L: 1/8
M: 2/4
K: Eb
c c/ c/ c g [I:setbarnb 1]| 
f2e2 | 
e cB2 | 
B B f c | 
B AF2 | 
F> A F A | 
A FB2 | 
B cf2 | 
c2B A | 
F4 |]

@@@ Tune index: 9402
